X:1
T:Bismarck, 76.76.76 D
T:Bismarck, 76.76.76 D
T:Frank Marion Davis, 1889
T:Public Domain Courtesy of the Cyber Hymnal™
C:Frank Marion Davis, 1889
Z:Public Domain
Z:Courtesy of the Cyber Hymnal™
%%score ( 1 2 ) ( 3 4 )
L:1/8
Q:1/4=100
M:3/4
K:G
V:1 treble 
V:2 treble 
V:3 bass 
V:4 bass 
V:1
 D2 | [DB][DB] [Ec]2 [DB]2 | ([DB][CA]) [B,G]2 D2 | [EG]G [EA]2 [EB]2 | [Ec]4 [FA]2 | %5
 [GB][DB] [Ec]2 [DB]2 | ([DB][CA]) [B,G]2 [DB]2 | [FA][FA] [GB]2 [G^c]2 | [Fd]4 [Fd]2 | %9
 [Ac][GB] [FA]2 F2 | ([B,G][CA]) [DB]2 ([GB][Ac]) | [Bd][ce] [Bd]2 ([GB] G) | [FA]4 [FA]2 | %13
 [GB][Ac] [Bd]2 B2 | (cd) [Ee]2 (cA) | [DG][DB] [DB]2 [FA]2 | G4 [Fd]2 | [Fd][Gd] [Ad]2 [Fc]2 | %18
 ([Ac][GB]) [GB]2 [Fd]2 | [Ac][GB] ([FA][DG]) (FG) | [FA]4 [FA]2 | [GB][Ac] [Bd]2 B2 | %22
 (cd) [Ee]2 (cA) | [DG][DB] [DB]2 [FA]2 | G4 |] %25
V:2
 D2 | x6 | x4 D2 | x G x4 | x6 | x6 | x6 | x6 | x6 | x4 (DC) | x6 | x5 (D/E/) | x6 | x4 (G=F) | %14
 E2 x E2 x | x6 | G4 x2 | x6 | x6 | x4 D2 | x6 | x4 (G=F) | E2 x E2 x | x6 | G4 |] %25
V:3
 [G,B,]2 | G,G, G,2 G,2 | (G,F,) G,2 [G,B,]2 | [E,B,][D,B,] [C,A,]2 [C,^G,]2 | [A,,A,]4 [D,A,]2 | %5
 G,G, G,2 G,2 | (G,F,) G,2 G,2 | [A,D][A,D] [A,^C]2 A,2 | [D,A,]4 z2 | D,6 | G,6- | G,6 | %12
 D,4 [D,D]2 | [G,D][G,D] [G,D]2 [G,D]2 | [C,C]2 [C,C]2 (A,C) | [D,B,][D,G,] [D,G,]2 [D,C]2 | %16
 [G,B,]4 [D,A,]2 | [D,A,][D,B,] [D,C]2 (A,D) | [G,D]2 [G,D]2 [D,D]2 | [D,D][D,D] (CB,) (A,B,) | %20
 [D,D]4 [D,D]2 | [G,D][G,D] [G,D]2 [G,D]2 | [C,C]2 [C,C]2 (A,C) | [D,B,][D,G,] [D,G,]2 [D,C]2 | %24
 [G,B,]4 |] %25
V:4
 x2 | G,G, G,2 G,2 | D,2 G,2 x2 | x6 | x6 | G,G, G,2 G,2 | D,2 G,2 G,2 | x4 A,2 | x6 | x6 | x6 | %11
 x6 | x6 | x6 | x4 C,2 | x6 | x6 | x4 D,2 | x6 | x2 D,2 D,2 | x6 | x6 | x4 C,2 | x6 | x4 |] %25

